X: 1
T: Tuttle's Reel
R: reel
S: Fiddle Hell Online 2021-2021-05-31 handout
Z: 2021 John Chambers <jc:trillian.mit.edu>
M: 4/4
L: 1/8
K: Dm
|:"Dm"vA,DD(E FE)FG | AcGc Aud-{e}d2 | D^CD(E FD)dB | "C"(vc2A)(uG FD)EC |
| "Dm"A,DD(uE FE)FG | AcG(c Ad)de | fde(ud {e}dc)AB | "C"(3(cBA G)(uE {G}ED) D[cC] :|
|:"Dm"(vd2{e}dA) "C"(c3d) | "Dm"Add(uB "C"cA)Gc | "D"Add(B "C"cd)cA | GEc(E {G}ED) (3(uE^FG |
| "Dm"vA)uddB "C"c3c | "Dm"Aud-{e}d2 "C"cAGA | "Dm"efe(ud {d}dc)Ac | "C"cAG(E {G}ED) D[cC] :|
%%begintext align
%% The final [cC] "chords" are really alternate notes; pick one to work with the next note.
%%endtext
